X:196
T: Der Tod als Erloeser
N: Q0120A
O: Mitteleuropa, Deutschland (BRD) , Pfalz
N: Modulation C - G.
R: Ballade, Klage am Grab, Geist, Tod
M: 6/8
L: 1/16
K: G
G2 | G4E2c4G2 | E2E4z4
GG | G4E2A4G2 | D6z4
D2 | D4D2D4D2 | G4B2B4
BB | c4c2F4F2 | G6z4

